!!!OTL: 779. Die Auferstehung.
!!!COM: K. Heinr. Graun
!!!ODT: 1758
!!!ARE: Europa, Mitteleuropa, Deutschland
!!!SCT: B0779
!!!TXL: @@DE
!!!YEM: Copyright 1995, estate of Helmut Schaffrath.
**kern	**text
*ICvox	*
*Ivox	*
*clefG2	*
*M3/4	*
*k[]	*
*C:	*
=1	=1
!LO:TX:a:t=Feierlich froh.	!
{(4g	Auf-
4cc)	.
4a	-er-
=2	=2
(4g	-ſtehn,
4b)	.
4cc	ja
=3	=3
8.dd	auf-
16ff	-er-
4ee	-ſtehn
4dd	wirſt
=4	=4
(4cc	du,
4b)}	.
{4cc	mein
=5	=5
(4a	Staub,
4g)	.
4cc	nach
=6	=6
(4a	kur-
4g)	.
4f	-ʒer
=7	=7
(4fqq	.
2e)	Ruh'!
4r}	.
=8	=8
{4e	Un-
4cc	-ſterb-
8b\L	-lichs
8aJ	.
=9	=9
(4g	Le-
4f#)	.
4g}	-ben
=10	=10
{4g	wird,
4a	der
4b	dich
=11	=11
(8.ccL	ſchuf,
32b	.
32ccJ	.
4dd)	.
4cc	dir
=12	=12
4cc	ge-
4b	-ben.
8r}	.
{8cc	Hal-
=13	=13
(4dd	-le-
4cc)	.
4b	-lu-
=14	=14
(8.ccL	-ja!
16ddJ	.
4ee)	.
8r}	.
{8cc	Hal-
=15	=15
(4dd	-le-
4cc)	.
4b	-lu-
=16	=16
2cc	-ja!
4r}	.
==	==
!!!AGN: Trost - Lied, Tod, Auferstehung, religioes
!!!ONB: ESAC (Essen Associative Code) Database: BOEHME
!!!AMT: simple triple
!!!AIN: vox
!!!EED: Helmut Schaffrath
!!!EEV: 1.0
!!!GTL: Religioese Lieder
!!@@COMMENT:"!!Gedicht von Fr. Gottlieb Klopſtock. 1757, gedruckt im J. Theil ſeiner "Geiſtl. Lieder 1758.
!!Klopſtocks Auferſtehungsode wurde bald nach ihrem Erſcheinen vom berühmten Berliner
!!Hofkapellmeiſter Heinrich Graun 1758 als Chor-Arie komponirt. Sie ertönte ſeitdem gar
!!tröſtlich durch ihre ſanften, weichen Klänge, von Kirchenchören und Geſangdereine vorgetragen, an
!!tauſend von Gräbern bis heute. Klopſtocks Text ward aber auch als Choral (für Gemeinde-
!!geſang) mehrfach komponirt, am beſten von Phil. Em. Bach. Auch der Choral ward vielſach an
!!Gräbern geſungen, ſelbſt an des Dichters Grab ʒu Ottenſen bei Altona 1803."
!!@@END:
!!!Text: F. G. Klopstock
!!!URL-scan: https://archive.org/details/BoehmeVtLieder1895/page/n621/mode/2up
!!!ENC: Anna Maria Matuszewska
!!!EEV: 2024/19/07
*-	*-
